!!!COM: Fornaci, Giacomo
!!!CDT: <1616->1622
!!!PTL: Amorosi respiri
!!!PPP: Venice
!!!PPR: Giacomo Vincenti
!!!PDT: 1617
!!!PUB-format:
!!!RISM: F 1522
!!!rime: 418
!!!OTL: Ardi e gela a tua voglia
!!!AGN: Madrigal
!!!SCT: Trm0418w
!!!SCA: Trm0418w
!!!original-voices: 1+bc
!!!extant-voices: 1+bc
!!!complete: Y
!!!final: G
**kern	**kern	**text
*part2	*part1	*part1
*staff2	*staff1	*staff1
*I"[Basso Continuo]	*I"[Canto]	*
*I'BC	*I'C	*
*oclefF4	*oclefC1	*
*clefF4	*clefG2	*
*k[]	*k[]	*
*omet(C|)	*omet(C|)	*
*M4/2	*M4/2	*
=1	=1	=1
!!LO:TX:a:t=Voce sola[.] Amor disprezzato. Risposta.
2G	4.dd	Ar-
.	8b	-di e
4E	4cc	ge-
4F#X	8a	-la a
.	8a	tua
2G	2b	vo-
2GG	2b	-glia,
=2	=2	=2
1AA	4r	.
.	2cc#X	Per-
.	4cc#X	-fi-
[1AA	1cc#X	-do,
=3	=3	=3
2AA]	4r	.
.	2ee	<Per-
[2E	.	.
.	4b	-fi-
2E]	2b	-do>
2D	[2dd	ed
=4	=4	=4
2.G	2dd]	.
.	(2g	im-
4F	.	.
2E	2g#X)	.
2AA	16aL	-pu-
.	8gni	.
.	16a	.
.	16b	.
.	8cc	.
.	16bJ	.
=5	=5	=5
[1E	1b	-di-
2E]	4b	-co,
.	8b	Or
.	8cc	a-
2D	4dd	-man-
.	8cc	-te or
.	8b	ne-
=6	=6	=6
2D	8.aL	-mi-
.	16b	.
.	8.a	.
.	16bJ	.
[2C	8.ccL	.
.	16dd	.
.	8.cc	.
.	16ddJ	.
2C]	4ee	.
.	8.eL	.
.	16fJ	.
2C	8.eL	.
.	16f	.
.	8g	.
.	8aJ	.
=7	=7	=7
1.D	2f#X	.
.	2.g	.
.	8f#iL	.
.	8eJ	.
2BBn	2f#X	.
=8	=8	=8
1E	2g#X	-co,
.	4.g#X	Or
.	8a	a-
1D	4b	-man-
.	8a	-te or
.	8gni	ne-
.	2a	-mi-
=9	=9	=9
1GG	1g	-co;
=10:|!|:	=10:|!|:	=10:|!|:
*omet(3/2)	*omet(3/2)	*
*M3/1	*M3/1	*
*omet(3/2)	*omet(3/2)	*
!!LO:TX:a:t=3/2
1G	1g	Ché
1F	1a	d’in-
1D	1b	-con-
=11	=11	=11
0C	0cc	-stan-
1F	1a	-te in-
=12	=12	=12
*M4/2	*M4/2	*
*omet(C|)	*omet(C|)	*
2.E	2b	-ge-
.	2b	-gno
4D	.	.
2C	4cc	Po-
.	8b	-co
.	8a	l’a-
4G	8b	-mor
.	8cc	io
4D	4a	sti-
=13	=13	=13
2G	4g	-mo
.	2dd	e
4F#X	.	.
2A	2cc#X	men
4D	4dd	lo
2E	2b	sde-
=14	=14	=14
2.E	4b	-gno,
.	2g#X	e
4D	2a	men
2C#X	.	.
.	4a	lo
2D	2a	sde-
=15	=15	=15
1GG	1g	-gno:
2FF#X	4r	.
.	2a	E
2AA	.	.
.	8e	se
.	8e	l’a-
=16	=16	=16
4.D	4.f#X	-mor
8C	8g	fu
2BB	2g#X	va-
1AA	1a	-no,
=17	=17	=17
2D	2r	.
2BB	2g	Van
1C	2.e	fia
.	4f	lo
=18	=18	=18
2F	(2f	sde-
[2D	2.f#X)	.
2D]	.	.
.	4g	-gno
2G	(2g	del
=19	=19	=19
1E	2.g#X)	.
.	4a	tuo
1AA	4.a	cor
.	8b	.
.	[2cc	.
=20	=20	=20
1E	4cc]	.
.	4b	in-
.	2b	-sa-
2C#X	2a	-no,
2D	4r	.
.	4a	Van
=21	=21	=21
1GG	2.b	fia
.	4cc	lo
2C	(((2cc	sde-
[2AA	[2cc#X)))	.
=22	=22	=22
2AA]	4cc#X]	.
.	4dd	-gno
2D	(2dd	del-
1BB	2.dd#X)	.
.	4ee	-tuo
=23	=23	=23
2.E	2.ee	cor
4F	4dd	in-
1G	1dd	-sa-
=24	=24	=24
2C	2cc	-no,
2BB	4r	.
.	2dd	Van
2D	.	.
.	8.cc	fia
.	16b	lo
2E	[2b	sde-
=25	=25	=25
2F#X	8.b]	.
.	16a	-gno
.	8.a	del
.	16g	tuo
4G	2.g	cor
4BB	.	.
1D	.	.
.	4a	in-
.	2a	-sa-
=26	=26	=26
0GGl	0gl	-no.
==	==	==
*-	*-	*-
!!!system-decoration: [*]
!!!RDF**kern: i = editorial accidental
!!!RDF**kern: l = terminal long
!!!ENC: Emiliano Ricciardi
!!!END: 2016/02/13
!!!EED: Schleuse, Paul
!!!EEV: 2017/11/18
!!!YEC: Copyright 2017 Emiliano Ricciardi, All Rights Reserved
!!!ONB: Translated from MusicXML on 2017/11/18 and edited by Craig Stuart Sapp
!!@@BEGIN:	VERSEDATA
!!@SOLERTI:	418
!!@CATALOGNUM:	Trm0418
!!@LAST_MODIFIED: 2020/07/12
!!@TITLE:		Ardi e gela a tua voglia
!!@GENRE:		madrigale
!!@MANUSRC:	E<sub>1</sub>, M<sub>7</sub>, N<sub>21</sub>, V<sub>13/E1</sub>
!!@PRINTSRC:	22, 26, 31, 35, 60, 69, 86, 93, 121, 141, 145, 159<sup>bis</sup>, 166, 169
!!@@BEGIN:	VERSES
!!@ABOUTIT:	[Risposta in nome di una dama ad un madrigale di B. Guarini]
!!@ABOUTEN:	[Response on behalf of a lady to a madrigale by B. Guarini]
!!@EDITOR:	Solerti, Angelo
!!@EDITION_TITLE: Le Rime di Torquato Tasso
!!@EDITION_LOC:	Bologna
!!@EDITION_PUB:	Romagnoli-Dall’Acqua
!!@EDITION_DATE:  1898-1902
!!@EDITION_VOL:	2
!!@EDITION_PAGE:  453
!!@TRANSLATOR:	Emiliano Ricciardi and Amyrose McCue Gill
!!@VERSE:
!!	Ardi e gela a tua voglia,
!!	Perfido ed impudico,
!!	Or'amante or nemico;
!!	Ché d'incostante ingegno
!!	Poco l'amore i' stimo e men lo sdegno:
!!	E se 'l tuo amor fu vano,
!!	Van fia lo sdegno del tuo cor insano.
!!@TVERSE:
!!	Burn and freeze as you wish,
!!	Wicked and shameless man,
!!	Now lover, now enemy;
!!	Since, for a fickle mind,
!!	Little love I bear and [esteem] even less its scorn:
!!	And if your love was in vain,
!!	May vain be the scorn of your demented heart.
!!@@END:		VERSES
!!@OTHER_CRIT_ED:   None
!!@ATTRIBUTION_ABOUT:	Secure
!!		<br>
!!		Among other sources, this poem appears in the authoritative manuscript It. 385, Biblioteca Estense Universitaria, Modena, Italy (see Literary Sources).
!!@DATING:	In or before 1583
!!@DEDICATEE:
!!@COMMENTARY:
!!@@END:		VERSEDATA
!!@@BEGIN:	SETTING
!!@CATALOGNUM:	Trm0418w
!!@RIMETITLE:	Ardi e gela a tua voglia
!!@SOLERTI:	418
!!@COMPOSER:	Fornaci, Giacomo
!!@PRINCEPSTITLE:	Amorosi respiri
!!@PRINCEPSLOC:	Venetia
!!@NORMLOC:	Venice
!!@NORMPUB:	Giacomo Vincenti
!!@NORMPUBSHORT:	G. Vincenzi
!!@PRINCEPSPUB:	Appresso Giacomo Vincenti
!!@PRINCEPSYEAR:	1617
!!@PRINCEPSRISM:	F 1522
!!@REPRINTS:	
!!@OVOICES:	1+bc
!!@EXTANTVOICES:	1+bc
!!@PARTBOOKS:	
!!@EXTPARTBOOKS:	
!!@OCLEFS:	C1,F4
!!@OMENSURATION:	Cut-C; 3/2; Cut-C
!!@OKEYSIG:	-
!!@FINAL:	G
!!@TIMPEDITOR:	Schleuse, Paul
!!@NOTE:		
!!@@END:		SETTING
